src/assets/outline/ReceiptSearch.svg

<svg width="24" height="24" viewBox="0 0 24 24"  xmlns="http://www.w3.org/2000/svg">
<path d="M10.54 21.94C10.31 21.94 10.09 21.84 9.94003 21.64L8.93002 20.29C8.72002 20.01 8.44005 19.85 8.14005 19.83C7.84004 19.81 7.54002 19.95 7.30002 20.2C5.85002 21.75 4.75003 21.62 4.22003 21.42C3.68003 21.21 2.77002 20.52 2.77002 18.3V7.04001C2.77002 2.60001 4.05002 1.25 8.24002 1.25H15.79C19.98 1.25 21.26 2.60001 21.26 7.04001V11.3C21.26 11.71 20.92 12.05 20.51 12.05C20.1 12.05 19.76 11.71 19.76 11.3V7.04001C19.76 3.43001 19.13 2.75 15.79 2.75H8.24002C4.90002 2.75 4.27002 3.43001 4.27002 7.04001V18.3C4.27002 19.35 4.53002 19.93 4.77002 20.02C4.95002 20.09 5.44004 19.99 6.20004 19.18C6.75004 18.6 7.47003 18.29 8.22003 18.33C8.96003 18.37 9.66004 18.76 10.13 19.39L11.15 20.74C11.4 21.07 11.33 21.54 11 21.79C10.85 21.9 10.69 21.94 10.54 21.94Z" />
<path d="M18.2 22.15C16.02 22.15 14.25 20.38 14.25 18.2C14.25 16.02 16.02 14.25 18.2 14.25C20.38 14.25 22.15 16.02 22.15 18.2C22.15 20.38 20.38 22.15 18.2 22.15ZM18.2 15.75C16.85 15.75 15.75 16.85 15.75 18.2C15.75 19.55 16.85 20.65 18.2 20.65C19.55 20.65 20.65 19.55 20.65 18.2C20.65 16.85 19.55 15.75 18.2 15.75Z" />
<path d="M21.9999 22.75C21.8099 22.75 21.6199 22.68 21.4699 22.53L20.4699 21.53C20.1799 21.24 20.1799 20.76 20.4699 20.47C20.7599 20.18 21.2399 20.18 21.5299 20.47L22.5299 21.47C22.8199 21.76 22.8199 22.24 22.5299 22.53C22.3799 22.68 22.1899 22.75 21.9999 22.75Z" />
<path d="M16 7.75H8C7.59 7.75 7.25 7.41 7.25 7C7.25 6.59 7.59 6.25 8 6.25H16C16.41 6.25 16.75 6.59 16.75 7C16.75 7.41 16.41 7.75 16 7.75Z" />
<path d="M15 11.75H9C8.59 11.75 8.25 11.41 8.25 11C8.25 10.59 8.59 10.25 9 10.25H15C15.41 10.25 15.75 10.59 15.75 11C15.75 11.41 15.41 11.75 15 11.75Z" />
</svg>

<?xml version="1.0" encoding="UTF-8"?>
<svg width="24" height="24" viewBox="0 0 24 24" xmlns="http://www.w3.org/2000/svg">
 <path d="m10.54 21.94c-0.23 0-0.45-0.1-0.59997-0.3l-1.01-1.35c-0.21-0.28-0.48997-0.44-0.78997-0.46-0.30001-0.02-0.60003 0.12-0.84003 0.37-1.45 1.55-2.55 1.42-3.08 1.22-0.54-0.21-1.45-0.9-1.45-3.12v-11.26c0-4.44 1.28-5.79 5.47-5.79h7.55c4.19 0 5.47 1.35 5.47 5.79v4.26c0 0.41-0.34 0.75-0.75 0.75s-0.75-0.34-0.75-0.75v-4.26c0-3.61-0.63-4.29-3.97-4.29h-7.55c-3.34 0-3.97 0.68001-3.97 4.29v11.26c0 1.05 0.26 1.63 0.5 1.72 0.18 0.07 0.67002-0.03 1.43-0.84 0.55-0.58 1.27-0.89 2.02-0.85 0.74 0.04 1.44 0.43 1.91 1.06l1.02 1.35c0.25 0.33 0.18 0.8-0.15 1.05-0.15 0.11-0.31 0.15-0.46 0.15z"/>
 <path d="m18.2 22.15c-2.18 0-3.95-1.77-3.95-3.95s1.77-3.95 3.95-3.95 3.95 1.77 3.95 3.95-1.77 3.95-3.95 3.95zm0-6.4c-1.35 0-2.45 1.1-2.45 2.45s1.1 2.45 2.45 2.45 2.45-1.1 2.45-2.45-1.1-2.45-2.45-2.45z"/>
 <path d="m22 22.75c-0.19 0-0.38-0.07-0.53-0.22l-1-1c-0.29-0.29-0.29-0.77 0-1.06s0.77-0.29 1.06 0l1 1c0.29 0.29 0.29 0.77 0 1.06-0.15 0.15-0.34 0.22-0.53 0.22z"/>
 <path d="m16 7.75h-8c-0.41 0-0.75-0.34-0.75-0.75s0.34-0.75 0.75-0.75h8c0.41 0 0.75 0.34 0.75 0.75s-0.34 0.75-0.75 0.75z"/>
 <path d="m15 11.75h-6c-0.41 0-0.75-0.34-0.75-0.75s0.34-0.75 0.75-0.75h6c0.41 0 0.75 0.34 0.75 0.75s-0.34 0.75-0.75 0.75z"/>
</svg>
